packages/kaspersky-hexa-ui-icons/src/iconsSVGs/24/StatusDangerOutline1.svg

<svg width="24" height="24" viewBox="0 0 24 24" fill="none" xmlns="http://www.w3.org/2000/svg">
<path d="M12 7C12.5523 7 13 7.44772 13 8V13C13 13.5523 12.5523 14 12 14C11.4477 14 11 13.5523 11 13V8C11 7.44772 11.4477 7 12 7Z" fill="black"/>
<path d="M12 17C12.5523 17 13 16.5523 13 16C13 15.4477 12.5523 15 12 15C11.4477 15 11 15.4477 11 16C11 16.5523 11.4477 17 12 17Z" fill="black"/>
<path fill-rule="evenodd" clip-rule="evenodd" d="M6 2.98291C4.34315 2.98291 3 4.32606 3 5.98291V18.0171C3 19.6739 4.34315 21.0171 6 21.0171H18C19.6569 21.0171 21 19.6739 21 18.0171V5.98291C21 4.32606 19.6569 2.98291 18 2.98291H6ZM18 4.98291H6C5.44772 4.98291 5 5.43063 5 5.98291V18.0171C5 18.5694 5.44772 19.0171 6 19.0171H18C18.5523 19.0171 19 18.5694 19 18.0171V5.98291C19 5.43063 18.5523 4.98291 18 4.98291Z" fill="black"/>
</svg>

<svg xmlns="http://www.w3.org/2000/svg" width="24" height="24" fill="none" viewBox="0 0 24 24"><path fill="#000" d="M12 7c.552 0 1 .448 1 1v5c0 .552-.448 1-1 1s-1-.448-1-1V8c0-.552.448-1 1-1m0 10c.552 0 1-.448 1-1s-.448-1-1-1-1 .448-1 1 .448 1 1 1"/><path fill="#000" fill-rule="evenodd" d="M6 2.983c-1.6569 0-3 1.343-3 3v12.034c0 1.6568 1.3431 3 3 3h12c1.6569 0 3-1.3432 3-3V5.9829c0-1.6568-1.3431-3-3-3zm12 2H6c-.5523 0-1 .4476-1 1v12.034c0 .5523.4477 1 1 1h12c.5523 0 1-.4477 1-1V5.9829c0-.5523-.4477-1-1-1" clip-rule="evenodd"/></svg>
